icons/video-add-fill.svg

<svg viewBox="0 0 24 24" fill="currentColor" xmlns="http://www.w3.org/2000/svg">
    <path d="M16 4C16.5523 4 17 4.44772 17 5V9.2L22.2133 5.55071C22.4395 5.39235 22.7513 5.44737 22.9096 5.6736C22.9684 5.75764 23 5.85774 23 5.96033V18.0397C23 18.3158 22.7761 18.5397 22.5 18.5397C22.3974 18.5397 22.2973 18.5081 22.2133 18.4493L17 14.8V19C17 19.5523 16.5523 20 16 20H2C1.44772 20 1 19.5523 1 19V5C1 4.44772 1.44772 4 2 4H16ZM8 8V11H5V13H7.999L8 16H10L9.999 13H13V11H10V8H8Z"/>
</svg>

<svg xmlns="http://www.w3.org/2000/svg" viewBox="0 0 24 24">
    <g>
        <path fill="none" d="M0 0H24V24H0z"/>
        <path d="M16 4c.552 0 1 .448 1 1v4.2l5.213-3.65c.226-.158.538-.103.697.124.058.084.09.184.09.286v12.08c0 .276-.224.5-.5.5-.103 0-.203-.032-.287-.09L17 14.8V19c0 .552-.448 1-1 1H2c-.552 0-1-.448-1-1V5c0-.552.448-1 1-1h14zM8 8v3H5v2h2.999L8 16h2l-.001-3H13v-2h-3V8H8z"/>
    </g>
</svg>
